assets/img/slider-cards/lect-3.svg

<svg width="100" height="100" viewBox="0 0 100 100" fill="none" xmlns="http://www.w3.org/2000/svg">
<path d="M90.625 50C90.6147 39.2288 86.3312 28.9016 78.7148 21.2852C71.0984 13.6688 60.7712 9.38534 50 9.375C39.2256 9.375 28.8925 13.6551 21.2738 21.2738C13.6551 28.8925 9.375 39.2256 9.375 50C9.375 60.7744 13.6551 71.1075 21.2738 78.7262C28.8925 86.3449 39.2256 90.625 50 90.625C60.7712 90.6147 71.0984 86.3312 78.7148 78.7148C86.3312 71.0984 90.6147 60.7712 90.625 50ZM84.2188 46.875H68.6719C68.0469 35.3125 63.9844 24.6094 57.1484 16.3672C64.3208 17.9079 70.8141 21.6978 75.683 27.185C80.5519 32.6722 83.5423 39.5703 84.2188 46.875ZM37.6172 53.125H62.3828C61.6797 64.375 57.1875 74.8828 50 82.1875C42.8125 74.8828 38.3203 64.375 37.6172 53.125ZM37.6172 46.875C38.3203 35.625 42.8125 25.1172 50 17.8125C57.1875 25.1172 61.6797 35.625 62.3828 46.875H37.6172ZM57.1484 83.6328C63.9844 75.3906 68.0469 64.6875 68.6719 53.125H84.2188C83.5423 60.4297 80.5519 67.3278 75.683 72.815C70.8141 78.3022 64.3208 82.0921 57.1484 83.6328Z" fill="#00A0E3"/>
</svg>

<svg width="100" height="100" fill="none" xmlns="http://www.w3.org/2000/svg"><path d="M90.625 50A40.664 40.664 0 0050 9.375a40.625 40.625 0 100 81.25A40.664 40.664 0 0090.625 50zm-6.406-3.125H68.672c-.625-11.563-4.688-22.266-11.524-30.508a34.453 34.453 0 0127.07 30.508zm-46.602 6.25h24.766C61.68 64.375 57.187 74.883 50 82.188c-7.188-7.305-11.68-17.813-12.383-29.063zm0-6.25C38.32 35.625 42.813 25.117 50 17.812c7.188 7.305 11.68 17.813 12.383 29.063H37.617zm19.531 36.758c6.836-8.242 10.899-18.945 11.524-30.508h15.547a34.454 34.454 0 01-27.07 30.508z" fill="#00A0E3"/></svg>
